X: 13990
T: Frank Gilruth
R: hornpipe
M: 4/4
K: Amajor
E/>D/|C/>E/A/>c/ d/>B/G/>B/|A/c/e/>g/ {g}ae/>c/|d/>f/B/>d/ c/>e/A/>c/|(3d/c/B/ (3c/B/A/ (3G/F/E/ (3D/C/B,/|
C/>E/A/>c/ d/>B/G/>B/|A/>c/e/>g/ {g}ae/>c/|d/>f/B/>d/ c/>e/A/>c/|d/>B/G/>e [EA]:|:
c'/>d'/|e'/>c'/a/>c'/ d'/>b/g/>^b/|c'/>a/f/>^a/ b/>g/e/>g/|a/>f/d/>f/ e/>c/A/>c/|(3d/c/B/ (3c/B/A/ (3G/F/E/ (3D/C/B,/|
C/>E/A/>c/ d/>B/G/>B/|A/>c/e/>g/ {g}ae/>c/|d/>f/B/>d/ c/>e/A/>c/|d/>B/G/>e/ [EA]:|

